brandFactory_export/2.Regular/Camion _2Regular.svg

<?xml version="1.0" encoding="UTF-8"?>
<svg width="24px" height="24px" viewBox="0 0 24 24" version="1.1" xmlns="http://www.w3.org/2000/svg" xmlns:xlink="http://www.w3.org/1999/xlink">
    <title>2.Regular/Camion _2Regular</title>
    <g id="Symbols" stroke="none" stroke-width="1" fill="none" fill-rule="evenodd">
        <g id="2.Regular/Camion-_2Regular" fill="#5CB615" fill-rule="nonzero">
            <path d="M22.1781513,17.1731092 C22.1781513,17.4151261 22.0605042,17.687395 21.8689076,17.8857143 C21.6672269,18.097479 21.405042,18.2151261 21.1831933,18.2151261 L20.1210084,18.2151261 C19.8117647,16.4806723 18.5680672,15.4453782 16.7159664,15.4453782 C16.5310924,15.4453782 16.3596639,15.4554622 16.1848739,15.4756303 L16.1848739,7.24369748 L17.1764706,7.23361345 C17.5529412,7.23361345 17.989916,7.46554622 18.2016807,7.76470588 C18.6756303,8.43697479 21.3008403,12.0605042 21.6369748,12.5142857 C21.8386555,12.7865546 22.1781513,13.2470588 22.1781513,13.6201681 L22.1781513,17.1731092 Z M16.712605,21.1798319 C15.3613445,21.1798319 14.6756303,20.4672269 14.6756303,19.0722689 C14.6756303,17.6638655 15.3613445,16.9512605 16.712605,16.9512605 C18.0537815,16.9512605 18.7394958,17.6638655 18.7394958,19.0689076 C18.7394958,20.4672269 18.0537815,21.1798319 16.712605,21.1798319 L16.712605,21.1798319 Z M13.297479,18.2184874 L8.54117647,18.2184874 C8.23193277,16.4840336 6.98823529,15.4487395 5.13613445,15.4487395 C3.27394958,15.4487395 2.0302521,16.4840336 1.7210084,18.2184874 C1.5697479,18.2117647 1.45210084,18.0907563 1.44867113,17.9394958 L1.44867113,3.80168067 C1.44537815,3.65042017 1.56638655,3.52268908 1.71764706,3.51932773 L14.4638655,3.52941176 C14.6084034,3.52941176 14.7361345,3.65042017 14.7361345,3.80168067 L14.7361345,15.9563025 C13.9731092,16.4302521 13.4823529,17.2033613 13.297479,18.2184874 Z M5.13277311,21.1798319 C3.78151261,21.1798319 3.09579832,20.4672269 3.09579832,19.0722689 C3.09579832,17.6672269 3.78151261,16.9546218 5.13277311,16.9546218 C6.47394958,16.9546218 7.15966387,17.6672269 7.15966387,19.0722689 C7.15966387,20.4672269 6.47394958,21.1798319 5.13277311,21.1798319 L5.13277311,21.1798319 Z M22.7731092,11.6033613 C22.4436975,11.1630252 19.8218487,7.52941176 19.3781513,6.89411765 C18.887395,6.19159664 18.0268908,5.73109244 17.1764706,5.73109244 L17.1663866,5.73109244 L16.1815126,5.74117647 L16.1815126,3.80168067 C16.1815126,2.81680672 15.4084034,2.02352941 14.4638655,2.02352941 L1.71764706,2.01344538 C0.769747899,2.01344538 0,2.81680672 0,3.80168067 L0,17.9361345 C0,18.9109244 0.752941176,19.7042017 1.6907563,19.7210084 C1.92941176,21.5697479 3.20672269,22.6823529 5.13613445,22.6823529 C7.05546218,22.6823529 8.32941176,21.5697479 8.56134454,19.7210084 L13.2773109,19.7210084 C13.5092437,21.5697479 14.7831933,22.6823529 16.712605,22.6823529 C18.6319328,22.6823529 19.9058824,21.5697479 20.1378151,19.7210084 L21.1798319,19.7210084 C21.7882353,19.7210084 22.4168067,19.4420168 22.887395,18.9478992 C23.3512605,18.4571429 23.6201834,17.8117647 23.6201834,17.1697479 L23.6201834,13.6067227 C23.6235294,12.7361345 23.0722689,11.9932773 22.7731092,11.6033613 L22.7731092,11.6033613 Z" id="Camion-_2Regular"></path>
        </g>
    </g>
</svg>

<svg width="24" height="24" viewBox="0 0 24 24" xmlns="http://www.w3.org/2000/svg"><path d="M22.178 17.173c0 .242-.117.514-.31.713-.2.211-.463.33-.685.33h-1.062c-.31-1.735-1.553-2.77-3.405-2.77-.185 0-.356.01-.531.03V7.244l.991-.01c.377 0 .814.232 1.026.53.474.673 3.099 4.297 3.435 4.75.202.273.541.733.541 1.106v3.553zm-5.465 4.007c-1.352 0-2.037-.713-2.037-2.108 0-1.408.685-2.12 2.037-2.12 1.34 0 2.026.712 2.026 2.117 0 1.398-.685 2.11-2.026 2.11zm-3.416-2.962H8.541c-.31-1.734-1.553-2.77-3.405-2.77-1.862 0-3.106 1.036-3.415 2.77a.284.284 0 01-.272-.279V3.802a.277.277 0 01.269-.283l12.746.01c.144 0 .272.121.272.273v12.154c-.763.474-1.254 1.247-1.439 2.262zM5.133 21.18c-1.351 0-2.037-.713-2.037-2.108 0-1.405.686-2.117 2.037-2.117 1.34 0 2.027.712 2.027 2.117 0 1.395-.686 2.108-2.027 2.108zm17.64-9.577c-.33-.44-2.951-4.074-3.395-4.709-.49-.702-1.351-1.163-2.202-1.163h-.01l-.984.01v-1.94c0-.984-.774-1.777-1.718-1.777l-12.746-.01C.77 2.013 0 2.816 0 3.801v14.134c0 .975.753 1.768 1.69 1.785.24 1.849 1.517 2.961 3.446 2.961 1.92 0 3.193-1.112 3.425-2.961h4.716c.232 1.849 1.506 2.961 3.436 2.961 1.919 0 3.193-1.112 3.425-2.961h1.042c.608 0 1.237-.279 1.707-.773.464-.49.733-1.136.733-1.778v-3.563c.004-.87-.548-1.614-.847-2.004z" fill="#5CB615" fill-rule="nonzero"/></svg>
